X:1
T:Title
%%score { 1 | 2 }
L:1/8
Q:1/4=106
M:4/4
K:Eb
V:1 treble nm="Grand Piano"
V:2 bass 
V:1
 G3 F E2 F2 | G2 [GB]2 [Ac]2 [GB]2 | [Ge]4 [Ac]2 [GB]2 | [GB]2 [EG]2 [DF]4 | G3 F E2 F2 | %5
w: Frank~M.~Davis * * *|||||
 G2 [GB]2 [Ac]2 [GB]2 | [Ge]3 [EAc] [GB]2 [B,EG]2 | [A,DF]3 [G,E] [G,E]4 | [Ge]3 [Ge] [Ge]2 [Ge]2 | %9
w: ||||
 f2 [Fd]2 [Ge]2 [GB]2 | c3 c c2 [ce]2 | [Bd]2 [Ac]2 [GB]4 | G3 F E2 F2 | G2 [GB]2 [Ac]2 [GB]2 | %14
w: |||||
 [Ge]3 [Ac] [GB]2 [EG]2 | [DF]3 E E4 |] %16
w: ||
V:2
 [E,B,E]3 [E,A,E] [E,G,]2 [E,A,E]2 | [E,B,E]2 [E,E]2 [E,E]2 [E,E]2 | [E,B,]4 [E,E]2 [E,E]2 | %3
 [E,E]2 [E,B,]2 [B,,B,]4 | [E,B,E]3 [E,A,E] [E,G,]2 [E,A,E]2 | [E,B,E]2 [E,E]2 [E,E]2 [E,E]2 | %6
 [E,E]3 A, B,2 B,,2 | B,,3 E, E,4 | [E,B,]3 [E,B,] [E,B,]2 [E,B,]2 | %9
 [B,A]2 [B,,B,]2 [E,B,]2 [E,E]2 | [A,EA]3 [A,EA] [A,EA]2 [A,E]2 | [A,E]2[K:bass] [A,E]2 [E,E]4 | %12
 [E,B,E]3 [E,A,E] [E,G,]2 [E,A,E]2 | [E,B,E]2 [E,E]2 [E,E]2 [E,E]2 | [E,E]3 [E,E] [E,E]2 [E,B,]2 | %15
 [B,,A,]3 [E,G,] [E,G,]4 |] %16

